svgs/trenit.svg

<svg width="192" height="192" viewBox="0 0 192 192" fill="none" xmlns="http://www.w3.org/2000/svg"><path d="M157.339 116.524a3.133 3.133 0 1 0-6.265.001 3.133 3.133 0 0 0 6.265-.001ZM132.28 116.524a3.132 3.132 0 1 0-6.263 0 3.132 3.132 0 0 0 6.263 0Z" stroke="#000" stroke-width="6" stroke-linejoin="round"/><path d="M160 151H22v-27.507h32.106c24.19 0 47.446-29.519 56.783-42.963 2.753-3.964 4.296-6.53 4.296-6.53h46.984S170 97.372 170 117.994 160 151 160 151Z" stroke="#000" stroke-width="12" stroke-linecap="round" stroke-linejoin="round"/><path d="M167 125h-48.491c-.893 0-1.666.592-1.993 1.423C112.475 136.72 96.02 149.5 75 149.5" stroke="#000" stroke-width="6" stroke-linecap="round" stroke-linejoin="round"/><path d="M163 71.79h-4.675m0 0L140.792 41m17.533 30.79h-27.273L114.299 41m26.493 0h-26.493m26.493 0h19.87m-46.363 0H103m11.299 0c2.602 17.877-8.478 41.234-12.799 54.5" stroke="#000" stroke-width="8" stroke-linecap="round" stroke-linejoin="round"/><path d="M162.5 98h-43" stroke="#000" stroke-width="12" stroke-linecap="round" stroke-linejoin="round"/><path d="m117.5 95-34 42 38.5-36M28 137.5h55" stroke="#000" stroke-width="6" stroke-linecap="round" stroke-linejoin="round"/></svg>

<svg width="192" height="192" viewBox="0 0 192 192" fill="none" xmlns="http://www.w3.org/2000/svg">
<path d="M157.339 116.524C157.339 114.794 155.936 113.392 154.206 113.392C152.476 113.392 151.074 114.794 151.074 116.524C151.074 118.254 152.476 119.656 154.206 119.656C155.936 119.656 157.339 118.254 157.339 116.524Z" stroke="black" stroke-width="6" stroke-linejoin="round"/>
<path d="M132.28 116.524C132.28 114.794 130.878 113.392 129.148 113.392C127.418 113.392 126.016 114.794 126.016 116.524C126.016 118.254 127.418 119.656 129.148 119.656C130.878 119.656 132.28 118.254 132.28 116.524Z" stroke="black" stroke-width="6" stroke-linejoin="round"/>
<path d="M160 151H54.1058H22V123.493H54.1058C78.296 123.493 101.552 93.9742 110.889 80.5304C113.642 76.5664 115.185 74 115.185 74H162.169C162.169 74 170 97.3719 170 117.994C170 138.616 160 151 160 151Z" stroke="black" stroke-width="12" stroke-linecap="round" stroke-linejoin="round"/>
<path d="M167 125H118.509C117.616 125 116.843 125.592 116.516 126.423C112.475 136.72 96.0196 149.5 75 149.5" stroke="black" stroke-width="6" stroke-linecap="round" stroke-linejoin="round"/>
<path d="M163 71.7895H158.325M158.325 71.7895L140.792 41M158.325 71.7895H131.052L114.299 41M140.792 41H114.299M140.792 41H160.662M114.299 41H103M114.299 41C116.901 58.877 105.821 82.2335 101.5 95.5" stroke="black" stroke-width="8" stroke-linecap="round" stroke-linejoin="round"/>
<path d="M162.5 98H119.5" stroke="black" stroke-width="12" stroke-linecap="round" stroke-linejoin="round"/>
<path d="M117.5 95L83.5 137L122 101" stroke="black" stroke-width="6" stroke-linecap="round" stroke-linejoin="round"/>
<path d="M28 137.5H83" stroke="black" stroke-width="6" stroke-linecap="round" stroke-linejoin="round"/>
</svg>
